X: 2
T: Battle Of Killiecrankie, The
Z: ceolachan
S: https://thesession.org/tunes/5961#setting17861
R: barndance
M: 4/4
L: 1/8
K: Cmaj
|: C2 |G3 A G2 E2 | G3 A G2 E2 | D2 C2 CDEF | G4 G2 G2 |
A3 c A2 G2 | A2 cB A2 G2 | c3 d e2 c2 | A4 A2 cd |
e2 g2 d2 e2 | c3 d e2 c2 | G3 A c2 E2 | G4 G2 G2 |
A3 A c2 c2 | d3 d e3 d | dcBA GAcE | D4 C2 :|
